assets/images/redux.svg

<svg width="24" height="24" viewBox="0 0 24 24" fill="none" xmlns="http://www.w3.org/2000/svg">
<path d="M16.633 16.7495C17.5039 16.6712 18.1759 15.8637 18.1332 14.8996C18.0859 13.9354 17.3359 13.1619 16.426 13.1619H16.363C15.4216 13.1943 14.6836 14.0311 14.7151 15.0277C14.7458 15.5347 14.9408 15.942 15.2109 16.2426C14.16 18.3931 12.5893 19.9718 10.2025 21.3013C8.60111 22.1832 6.90892 22.517 5.26099 22.2781C3.88158 22.0765 2.80371 21.4263 2.14363 20.3831C1.15427 18.8012 1.06426 17.0999 1.88935 15.3907C2.49017 14.1592 3.38952 13.256 3.98659 12.8154C3.83882 12.4042 3.6588 11.7121 3.56879 11.1885C-0.868708 14.5381 -0.415657 19.1231 0.932246 21.2863C1.93661 22.8682 3.98659 23.8774 6.2331 23.8774C6.83541 23.8774 7.46399 23.8323 8.07756 23.671C11.9772 22.88 14.9266 20.4163 16.6173 16.7835L16.633 16.7495ZM21.9811 12.7996C19.6611 9.92381 16.2422 8.34195 12.3478 8.34195H11.8355C11.5857 7.76061 10.9991 7.3952 10.3391 7.3952H10.2963C9.3512 7.3952 8.61612 8.25178 8.64687 9.24519C8.67912 10.1919 9.43971 10.9829 10.3541 10.9829H10.4291C11.1041 10.9504 11.687 10.5091 11.9292 9.87477H12.4836C14.7931 9.87477 16.9773 10.5874 18.9733 11.9763C20.4967 13.0337 21.5948 14.4274 22.2077 16.0867C22.747 17.4416 22.7155 18.7727 22.1604 19.8808C21.3091 21.6146 19.8674 22.5328 17.9689 22.5328C16.7695 22.5328 15.6017 22.1374 14.9993 21.8534C14.64 22.1666 14.0385 22.6894 13.6042 23.0074C14.9251 23.637 16.2572 24 17.5466 24C20.469 24 22.6412 22.2655 23.4655 20.5895C24.3634 18.6944 24.2899 15.5014 21.9961 12.7664L21.9811 12.7996ZM6.48738 17.3182C6.51963 18.265 7.28022 19.0559 8.19832 19.0559H8.25758C9.21843 19.0235 9.94902 18.1867 9.90551 17.1901C9.90551 16.2418 9.12842 15.4508 8.21407 15.4508H8.15106C8.09331 15.4508 8.0033 15.4508 7.92529 15.4848C6.68315 13.2726 6.15884 10.8998 6.35386 8.34115C6.47162 6.41366 7.07319 4.74084 8.15106 3.3488C9.05042 2.16636 10.7411 1.57712 11.8977 1.54864C15.1329 1.4822 16.4845 5.73741 16.5865 7.42684L18.0867 7.90061C17.7386 2.71843 14.6843 0 11.762 0C9.01966 0 6.48737 2.10071 5.46801 5.18218C4.0766 9.29423 4.99096 13.2402 6.69815 16.4039C6.55038 16.6056 6.46037 16.9726 6.48738 17.3182Z" fill="#626262"/>
</svg>

<svg width="24" height="24" viewBox="0 0 24 24" fill="none" xmlns="http://www.w3.org/2000/svg"><path d="M16.633 16.75c.87-.079 1.543-.886 1.5-1.85-.047-.965-.797-1.738-1.707-1.738h-.063c-.941.032-1.68.87-1.648 1.866.03.507.226.914.496 1.215-1.051 2.15-2.622 3.729-5.008 5.058-1.602.882-3.294 1.216-4.942.977-1.38-.201-2.457-.852-3.117-1.895-.99-1.582-1.08-3.283-.255-4.992.601-1.232 1.5-2.135 2.098-2.576a11.205 11.205 0 0 1-.418-1.627C-.87 14.538-.416 19.123.932 21.287c1.005 1.582 3.055 2.591 5.301 2.591.602 0 1.231-.045 1.845-.206 3.9-.791 6.849-3.255 8.54-6.887l.015-.034Zm5.348-3.95c-2.32-2.876-5.739-4.458-9.633-4.458h-.513c-.25-.581-.836-.947-1.496-.947h-.043c-.945 0-1.68.857-1.65 1.85.033.947.794 1.738 1.708 1.738h.075a1.703 1.703 0 0 0 1.5-1.108h.555c2.31 0 4.493.712 6.49 2.101 1.523 1.058 2.62 2.451 3.234 4.11.539 1.356.508 2.687-.048 3.795-.85 1.734-2.293 2.652-4.191 2.652-1.2 0-2.367-.396-2.97-.68-.359.314-.96.836-1.395 1.154 1.321.63 2.653.993 3.943.993 2.922 0 5.094-1.735 5.918-3.41.898-1.896.825-5.089-1.469-7.824l-.015.034ZM6.487 17.318c.033.947.793 1.738 1.711 1.738h.06c.96-.033 1.691-.87 1.648-1.866 0-.948-.778-1.74-1.692-1.74h-.063a.57.57 0 0 0-.226.035C6.683 13.273 6.16 10.9 6.354 8.34c.118-1.927.72-3.6 1.797-4.992.9-1.183 2.59-1.772 3.747-1.8 3.235-.067 4.587 4.188 4.689 5.878l1.5.474C17.739 2.718 14.684 0 11.762 0 9.02 0 6.487 2.1 5.468 5.182c-1.391 4.112-.477 8.058 1.23 11.222-.148.202-.238.569-.21.914Z" fill="#626262"/></svg>
